X:43
T:Ben Lomond
R:Strathspey
B:The Athole Collection
M:C
L:1/8
K:D
B|A>FA>B A>FA>d|B>AB>d e/e/e e2|d<f f>d e>Bd>A|B<d A>F D/D/D D:|
f/g/|a>fe>f a>fd>f|e>de>f e/e/e ef/g/|a>fd>f a<ba>f|e<de>f d/d/d df/g/|
a>fd>f a>fd>f|e<d e>f e/e/e e2|d<f f>d e>Bd>A|B<d A>F D/D/D D||

